!!! OTL: Berkowitz414
!!! Chapter: 1
!!! Section: IV
!!! Page: 103
!!! Mode: 
!!! Encoder: DJB
**kern
*staff1
*I"Piano
=1-
*clefC4
*k[f#]
*G:
*M2/4
4r
8r
8d\
=2
8G\L
16.A\L
32B\JJk
8A/L
8D/J
=3
8A\L
16.B\L
32c\JJk
8B\L
8G\J
=4
8.e\L
16d\Jk
8.c\L
16B\Jk
=5
16A/LL
16G/
16F#/
16G/JJ
8A/L
8D/J
=6
8G\L
16.A\L
32B\JJk
8A\L
8d\J
=7
8c#\L
16d\L
16e\JJ
8d\L
8d#\J
=8
16e\LL
16d\
16c\
16B\JJ
16A/LL
16G/
16F#/
16E/JJ
=9
!!linebreak:original
8D/L
8F#/J
8G/
8r
==
*-
